!!!!SEGMENT: Con2001-Assumpta_est_Maria.krn
!!!id: Con2001
!!!AGN: Motet
!!!SCT: Sherr (1990)
!!!voices: 4
!!!COM: Jean Conseil
!!!OTL: Assumpta est Maria
**kern	**kern	**kern	**kern
*part4	*part3	*part2	*part1
*staff4	*staff3	*staff2	*staff1
*I"Bassus	*I"Tenor	*I"Altus	*I"Superius
*I'B	*I'T	*I'A	*I'S
*clefF4	*clefGv2	*clefG2	*clefG2
*k[b-]	*k[b-]	*k[b-]	*k[b-]
*F:	*F:	*F:	*F:
*M2/1	*M2/1	*M2/1	*M2/1
*met(C|)	*met(C|)	*met(C|)	*met(C|)
!!Section: Prima pars: Assumpta est Maria
!!!OMD: Prima pars: Assumpta est Maria
=1	=1	=1	=1
0r	0r	0r	1f
.	.	.	[1cc
=2	=2	=2	=2
0r	0r	1r	2cc]
.	.	.	2dd
.	.	1c	1ee
=3	=3	=3	=3
0r	0r	1.f	1ff
.	.	.	1dd
.	.	2g	.
=4	=4	=4	=4
0r	0r	1a	1cc
.	.	1b-y	1ff
=5	=5	=5	=5
0r	0r	1g	2ee
.	.	.	2.dd
.	.	1f	.
.	.	.	4cc
.	.	.	4cc
.	.	.	8b-yL
.	.	.	8ccJ
=6	=6	=6	=6
0r	0r	1b-y	1dd
.	.	2a	2cc
.	.	[2g	2b-y
=7	=7	=7	=7
0r	0r	2g]	2a
.	.	2f	1dd
.	.	2g	.
.	.	4d	4cc
.	.	4e	4b-y
=8	=8	=8	=8
0r	1F	4f	4a
.	.	4g	4b-y
.	.	1a	1cc
.	[1c	.	.
.	.	4g	4b-y
.	.	4f	4a
=9	=9	=9	=9
1r	2c]	2e	2g
.	2d	2f	2f
1C	1e	1g	1cc
=10	=10	=10	=10
1.F	1f	2a	2cc
.	.	1a	2.cc
.	1d	.	.
.	.	.	4b-y
2G	.	4g	4b-y
.	.	4f	8aL
.	.	.	8b-yJ
=11	=11	=11	=11
1A	1c	1e	1cc
1B-y	1f	1d	[1b-y
=12	=12	=12	=12
1G	2e	1B-y	2b-]
.	2.d	.	2b-y
1F	.	[1f	1a
.	4c	.	.
.	4c	.	.
.	8B-yL	.	.
.	8cJ	.	.
=13	=13	=13	=13
1B-y	1d	1f]	0r
2A	2c	1r	.
[2G	2B-y	.	.
=14	=14	=14	=14
4G]	2A	0r	1r
4F	.	.	.
4F	2.d	.	.
8EL	.	.	.
8FJ	.	.	.
1G	.	.	2r
.	4c	.	.
.	2B-y	.	[2dd
=15	=15	=15	=15
2F	4A	0r	2dd]
.	4G	.	.
2E	2.c	.	2ee
1D	.	.	2ff
.	4Bni	.	.
.	4Bni	.	2ff
.	8AL	.	.
.	8BniJ	.	.
=16	=16	=16	=16
1C	1c	2r	1ee
.	.	1g	.
1r	2r	.	2dd
.	[2d	2a	[2ff
=17	=17	=17	=17
0r	2d]	2b-y	2ff]
.	2e	2b-y	4ee
.	.	.	4dd
.	2f	1a	1cc
.	2f	.	.
=18	=18	=18	=18
0r	2e	2g	2r
.	1d	2f	1ff
.	.	1g	.
.	2c	.	2ee
=19	=19	=19	=19
2r	2d	2f	1.dd
1G	4B-y	1b-y	.
.	4c	.	.
.	4d	.	.
.	4e	.	.
2A	[2f	[2a	2cc
=20	=20	=20	=20
2B-y	2f]	2a]	2dd
2B-y	4e	2g	2dd
.	4d	.	.
1A	1e	2a	1cc
.	.	2A	.
=21	=21	=21	=21
2G	2r	2B-y	2b-y
2F	1f	1c	2a
1G	.	.	2.b-y
.	2e	2B-y	.
.	.	.	8aL
.	.	.	8gJ
=22	=22	=22	=22
1F	2d	1f	1.a
.	2c	.	.
1r	2d	2r	.
.	2d	[2f	4g
.	.	.	4f
=23	=23	=23	=23
1r	1c	2f]	1g
.	.	2e	.
2r	2r	2d	2f
[2F	2A	[2c	[2a
=24	=24	=24	=24
2F]	2F	2c]	2a]
2E	2G	2c	2g
2D	4A	2d	2f
.	4B-y	.	.
2C	4c	2e	[2g
.	4A	.	.
=25	=25	=25	=25
2D	4B-y	2d	2g]
.	4A	.	.
2D	4G	2B-y	1f
.	4F	.	.
1C	1G	[1c	.
.	.	.	2e
=26	=26	=26	=26
2r	[0F	1c]	[0f
1A	.	.	.
.	.	2r	.
2F	.	[2A	.
=27	=27	=27	=27
2.c	1F]	2A]	1f]
.	.	2F	.
4B-y	.	.	.
4A	1r	2.c	1r
4G	.	.	.
[2F	.	.	.
.	.	4B-y	.
=28	=28	=28	=28
2F]	1c	2A	1r
2E	.	1G	.
1D	1d	.	1f
.	.	2F	.
=29	=29	=29	=29
1C	1e	1c	1g
2.F	4c	2r	1a
.	4B-y	.	.
.	4A	2c	.
4E	4G	.	.
=30	=30	=30	=30
4D	1.A	1d	1f
4C	.	.	.
2D	.	.	.
1C	.	2e	1cc
.	2G	2c	.
=31	=31	=31	=31
2BB-y	2B-y	1f	1dd
2D	2A	.	.
1C	1c	1g	1ee
=32	=32	=32	=32
1F	2r	1a	2cc
.	2A	.	2ff
1G	1B-y	1g	2ee
.	.	.	[2dd
=33	=33	=33	=33
1A	1c	2e	2dd]
.	.	2.a	4cc
.	.	.	4b-y
1F	2A	.	1cc
.	.	4g	.
.	2A	[2f	.
=34	=34	=34	=34
1G	1B-y	2f]	1b-y
.	.	2e	.
2F	1c	2f	2a
2C	.	2e	[2g
=35	=35	=35	=35
2D	2A	1d	4g]
.	.	.	4f
2BB-y	2B-y	.	1f
1C	1G	1c	.
.	.	.	2e
=36	=36	=36	=36
2.F	4F	1c	1f
.	4G	.	.
.	4A	.	.
4G	4B-y	.	.
4A	4c	1r	1r
4B-y	4d	.	.
4c	4e	.	.
4A	4f	.	.
=37	=37	=37	=37
4B-y	4g	0r	0r
4A	4e	.	.
4G	2.f	.	.
4F	.	.	.
1G	.	.	.
.	4e	.	.
.	4e	.	.
.	8dL	.	.
.	8eJ	.	.
=38	=38	=38	=38
0F	1f	1r	1.cc
.	1r	[1f	.
.	.	.	2cc
=39	=39	=39	=39
0r	0r	2f]	1cc
.	.	2f	.
.	.	1f	1ff
=40	=40	=40	=40
0r	1r	1b-y	2dd
.	.	.	2dd
.	[1c	2g	1ee
.	.	2g	.
=41	=41	=41	=41
1.F	2c]	1a	2cc
.	2c	.	1ff
.	1c	1f	.
2F	.	.	4ee
.	.	.	4dd
=42	=42	=42	=42
1F	1f	1a	1cc
1B-y	2d	2f	1dd
.	2d	2f	.
=43	=43	=43	=43
2G	1e	1g	2b-y
2G	.	.	2b-y
1A	[1c	1e	1cc
=44	=44	=44	=44
1.F	2c]	1f	1a
.	2B-y	.	.
.	2A	1c	1cc
2E	2G	.	.
=45	=45	=45	=45
1D	1A	1.f	1.dd
1BB-y	[1B-y	.	.
.	.	2e	2ee
=46	=46	=46	=46
1BB-y	2B-]	1d	1.ff
.	2A	.	.
[1C	1G	[1g	.
.	.	.	4ee
.	.	.	4dd
=47	=47	=47	=47
1C]	0c	1g]	1ee
[1F	.	[1a	[1ff
=48	=48	=48	=48
1F]	1A	1a]	2ff]
.	.	.	2ee
1G	1B-y	1g	1dd
=49	=49	=49	=49
1A	1c	2e	1.cc
.	.	2f	.
1G	[1d	1g	.
.	.	.	4b-y
.	.	.	4a
=50	=50	=50	=50
1G	1d]	1g	2b-y
.	.	.	2b-y
1C	1c	1e	1cc
=51	=51	=51	=51
1F	1.c	1f	1a
[1G	.	[1d	[1b-y
.	4B-y	.	.
.	4A	.	.
=52	=52	=52	=52
1G]	1B-y	1d]	2b-]
.	.	.	2g
1C	[1c	1e	1g
=53	=53	=53	=53
1C	1c]	1e	1g
1F	[1c	1f	[1a
=54	=54	=54	=54
1C	2c]	1e	2a]
.	2B-y	.	2g
1D	2A	[1d	2f
.	2F	.	2a
=55	=55	=55	=55
1BB-y	2.B-y	1d]	2g
.	.	.	1f
.	4A	.	.
[1C	2G	1c	.
.	2F	.	4e
.	.	.	4d
=56	=56	=56	=56
1C]	1G	2r	1e
.	.	1c	.
1F	1A	.	1f
.	.	2d	.
=57	=57	=57	=57
2r	2r	4e	0r
.	.	4d	.
1c	1c	4e	.
.	.	4f	.
.	.	1g	.
2B-y	2d	.	.
=58	=58	=58	=58
1A	4e	2r	2r
.	4d	.	.
.	4e	1c	1cc
.	4f	.	.
1G	[1g	.	.
.	.	2d	2b-y
=59	=59	=59	=59
1C	1g]	4e	1cc
.	.	4d	.
.	.	4e	.
.	.	4f	.
2r	2.G	2.g	2.b-y
[2G	.	.	.
.	4A	4f	4a
=60	=60	=60	=60
2G]	2B-y	2e	2g
2F	2.A	2.d	2a
1E	.	.	2b-y
.	4G	4c	.
.	2G	[2c	2cc
=61	=61	=61	=61
1D	2A	2c]	2dd
.	2F	2B-y	1ff
1C	2G	4c	.
.	.	4d	.
.	[2c	4e	4ee
.	.	4f	4dd
=62	=62	=62	=62
2r	4c]	2g	2ee
.	4B-y	.	.
1F	4A	1a	2cc
.	4G	.	.
.	2F	.	2dd
2E	2G	2g	2ee
=63	=63	=63	=63
1D	2A	2f	1ff
.	2F	2d	.
1C	4G	2e	1ee
.	4F	.	.
.	4G	[2g	.
.	4A	.	.
=64	=64	=64	=64
2BB-y	4B-y	4g]	2dd
.	4A	4f	.
2D	4G	1f	2b-y
.	4F	.	.
1C	1G	.	[1cc
.	.	2e	.
=65	=65	=65	=65
0F	0A	2f	1cc]
.	.	1c	.
.	.	.	1a
.	.	2d	.
=66	=66	=66	=66
2r	2r	4e	1g
.	.	4d	.
1c	1c	4e	.
.	.	4f	.
.	.	1g	1r
2B-y	2d	.	.
=67	=67	=67	=67
1A	4e	2r	2r
.	4d	.	.
.	4e	1c	1cc
.	4f	.	.
1G	[1g	.	.
.	.	2d	2b-y
=68	=68	=68	=68
1C	1g]	4e	1cc
.	.	4d	.
.	.	4e	.
.	.	4f	.
2r	2.G	2.g	1b-y
[2G	.	.	.
.	4A	4f	.
=69	=69	=69	=69
2G]	2B-y	2e	2g
2F	1A	2.d	2a
1E	.	.	2b-y
.	.	4c	.
.	2G	[2c	2cc
=70	=70	=70	=70
1D	2A	2c]	2dd
.	2F	2B-y	1ff
1C	2G	4c	.
.	.	4d	.
.	[2c	4e	4ee
.	.	4f	4dd
=71	=71	=71	=71
2r	4c]	2g	4ee
.	4B-y	.	4dd
1F	4A	2c	4cc
.	4G	.	4b-y
.	2F	2d	2a
2E	2G	2e	[2cc
=72	=72	=72	=72
1D	2A	1f	2cc]
.	2F	.	2b-y
1C	2c	1e	2a
.	2G	.	[2g
=73	=73	=73	=73
2BB-y	4B-y	2d	4g]
.	4A	.	4f
2D	4G	2B-y	1f
.	4F	.	.
1C	1G	1c	.
.	.	.	2e
=74	=74	=74	=74
00Fl	00Fl	00Al	00fl
==	==	==	==
*-	*-	*-	*-
!!!system-decoration: [*]
!!!RDF**kern: i = editorial accidental
!!!RDF**kern: l = terminal long
!!!ENC: Benjamin Ory
!!!END: 2022/4/25
!!!EED: Benjamin Ory
!!!EEV: 2022/04/25
!!!YEC: Copyright 2022 Benjamin Ory, All Rights Reserved
!!!ONB: Translated from MusicXML on 2022/04/25
